X: 29170
T: New Bob, The
R: reel
M: 4/4
K: Bminor
def|:Bcde f2e2|c2e2a2e2|Bcde faea|c2ec B2f2:|
|:(3BBB ba b4|abaf ef (3afe|fbeb dbeb|f2ec B2f2:|

